src/24/panel/autokey-status-error.svg

<svg xmlns="http://www.w3.org/2000/svg" width="24" height="24" version="1.1">
 <defs>
  <style id="current-color-scheme" type="text/css">
   .ColorScheme-Text { color:#dfdfdf; } .ColorScheme-Highlight { color:#4285f4; }
  </style>
 </defs>
 <g>
  <path style="fill:currentColor" class="ColorScheme-Highlight" d="M 4,17.203 4,17.75 C 4,18.962 5.0381,20 6.25,20 l 11.5,0 C 18.962,20 20,18.962 20,17.75 l 0,-0.547 C 19.468,17.688 18.775,18 18,18 L 6,18 C 5.2254,18 4.5316,17.688 4,17.203 Z M 12,6 c 0.216901,0 0.427709,0.1358 0.49605,0.35 l 0.87,2.6503 2.851,0 c 0.486625,0 0.688347,0.6862 0.293,0.9699 l -2.314,1.6662 0.88,2.7015 c 0.144289,0.4587 -0.378668,0.8438 -0.769,0.563 L 12,13.2204 9.7015499,14.9009 c -0.393805,0.2887 -0.9254452,-0.1003 -0.7695,-0.563 L 9.8226498,11.6264 7.52,9.951 C 7.1283687,9.6659 7.3290098,8.9992 7.81345,8.9998 l 2.8506,0 0.881,-2.6498 C 11.60945,6.1509 11.783098,6 12,6 Z M 7,4 C 5.9806772,3.9998 5.1139707,4.9871 5,6 L 4.0122243,14.779 C 3.8806145,15.964 4.8077628,17.0002 6,17 l 12,0 c 1.192117,0 2.120121,-1.0362 1.988524,-2.221 L 19,6 C 18.885957,4.9872 18.019208,4 17,4 Z"/>
 </g>
</svg>

<svg xmlns="http://www.w3.org/2000/svg" width="24" height="24"><defs><style id="current-color-scheme" type="text/css"></style></defs><path d="M4 17.203v.547C4 18.962 5.038 20 6.25 20h11.5c1.212 0 2.25-1.038 2.25-2.25v-.547A2.96 2.96 0 0 1 18 18H6a2.96 2.96 0 0 1-2-.797zM12 6a.52.52 0 0 1 .496.35l.87 2.65h2.851c.487 0 .688.686.293.97l-2.314 1.666.88 2.702c.144.459-.379.844-.769.563L12 13.22 9.702 14.9a.5.5 0 0 1-.77-.563l.89-2.712L7.52 9.951c-.392-.285-.191-.952.293-.951h2.851l.881-2.65c.064-.2.238-.35.455-.35zM7 4c-1.02 0-1.886.987-2 2l-.988 8.779A2 2 0 0 0 6 17h12a2 2 0 0 0 1.989-2.221L19 6c-.114-1.013-.98-2-2-2z" fill="currentColor" color="#5294e2"/></svg>
